fonts/svg/terminal-16.svg

<?xml version="1.0" encoding="UTF-8" standalone="no"?>
<svg
   xmlns:dc="http://purl.org/dc/elements/1.1/"
   xmlns:cc="http://creativecommons.org/ns#"
   xmlns:rdf="http://www.w3.org/1999/02/22-rdf-syntax-ns#"
   xmlns:svg="http://www.w3.org/2000/svg"
   xmlns="http://www.w3.org/2000/svg"
   xmlns:sodipodi="http://sodipodi.sourceforge.net/DTD/sodipodi-0.dtd"
   xmlns:inkscape="http://www.inkscape.org/namespaces/inkscape"
   width="16"
   height="16"
   viewBox="0 0 16 16"
   version="1.1"
   id="svg835"
   sodipodi:docname="terminal-16.svg"
   inkscape:version="1.0.1 (c497b03c, 2020-09-10)">
  <metadata
     id="metadata841">
    <rdf:RDF>
      <cc:Work
         rdf:about="">
        <dc:format>image/svg+xml</dc:format>
        <dc:type
           rdf:resource="http://purl.org/dc/dcmitype/StillImage" />
      </cc:Work>
    </rdf:RDF>
  </metadata>
  <defs
     id="defs839" />
  <sodipodi:namedview
     pagecolor="#ffffff"
     bordercolor="#666666"
     borderopacity="1"
     objecttolerance="10"
     gridtolerance="10"
     guidetolerance="10"
     inkscape:pageopacity="0"
     inkscape:pageshadow="2"
     inkscape:window-width="1440"
     inkscape:window-height="900"
     id="namedview837"
     showgrid="false"
     inkscape:zoom="38.625"
     inkscape:cx="8"
     inkscape:cy="8"
     inkscape:window-x="0"
     inkscape:window-y="0"
     inkscape:window-maximized="0"
     inkscape:current-layer="svg835" />
  <path
     fill-rule="evenodd"
     d="M 0,2.75 C 0,1.784 0.784,1 1.75,1 h 12.5 C 15.216,1 16,1.784 16,2.75 v 10.5 C 16,14.216498 15.216498,15 14.25,15 H 1.75 C 0.78350169,15 0,14.216498 0,13.25 Z M 1.75,2.5 C 1.6119288,2.5 1.5,2.6119288 1.5,2.75 v 10.5 c 0,0.138 0.112,0.25 0.25,0.25 h 12.5 c 0.138071,0 0.25,-0.111929 0.25,-0.25 V 2.75 C 14.5,2.6119288 14.388071,2.5 14.25,2.5 Z M 7.25,8 C 7.2498249,8.1988454 7.1706925,8.3894826 7.03,8.53 L 4.78,10.78 C 4.0737896,11.537891 2.9621088,10.42621 3.72,9.72 L 5.44,8 3.72,6.28 C 2.9621088,5.5737896 4.0737896,4.4621088 4.78,5.22 L 7.03,7.47 C 7.171,7.61 7.25,7.801 7.25,8 Z m 4.5,1.5 c 1,0 1,1.5 0,1.5 h -3 c -0.9999996,0 -0.9999996,-1.5 0,-1.5 z"
     id="path833"
     sodipodi:nodetypes="sssssssssssssssssscccccccccsssss" />
</svg>

<svg xmlns="http://www.w3.org/2000/svg" width="16" height="16" viewBox="0 0 16 16"><path fill-rule="evenodd" d="M0 2.75C0 1.784.784 1 1.75 1h12.5c.966 0 1.75.784 1.75 1.75v10.5A1.75 1.75 0 0114.25 15H1.75A1.75 1.75 0 010 13.25V2.75zm1.75-.25a.25.25 0 00-.25.25v10.5c0 .138.112.25.25.25h12.5a.25.25 0 00.25-.25V2.75a.25.25 0 00-.25-.25H1.75zM7.25 8a.75.75 0 01-.22.53l-2.25 2.25a.75.75 0 11-1.06-1.06L5.44 8 3.72 6.28a.75.75 0 111.06-1.06l2.25 2.25c.141.14.22.331.22.53zm1.5 1.5a.75.75 0 000 1.5h3a.75.75 0 000-1.5h-3z"/></svg>
